X:59
%%score 1 2
%%pagewidth 7.5in
T:Go from my window - Bacon
M:C
L:1/8
K:C
V:1 clef-treble
V:2 clef-bass octave=-1
V:1 
[CEA]2ABc2[EB]A|[D^G]2[CA]2[B,E]4|[EA]2Bc[EAc]2Bc|c4B2Bc&[Gd]6z2|
w:Go from my win-dow, my love, my love; Go from my win-dow, my dear;* For the 
V:2
A,6C2|B,2A,2^G,4|C4A,4|=G,6z2|
V:1
dcdBe2[E^GB]B|[EAc]c[EB]A[E^GB]2EE|[EA]2[CA][DB][EAc]2[D^GB]2|[CA]8||
w:wind is in the west, And the cuc-koo's in his nest, And you can't have a lodg-ing here.
V:2
z4z2E2|A,2C2E2D2|C2F2E2E2|A8||

